X:1
T:I Read It In The Daily News
M:4/4
L:1/8
K:G
 B,B, D2 DD DD| ED B,2 D4| E2 GG GG G2| A2 E2 G4| B^A B G- G3 D| DD DD =F2 E2|\
 D8-| D8| _B A3 G4| _B A3 G4| z BB BB BB B| B D3 =F4| EG GG GG GG|\
 A2 G2 G2 B,C| D2 DD DE DC| B, A,- A,2 G,4|
